assets/img/window-managers/dwm.svg

<?xml version="1.0"?>
<!-- Copyright (c) 2014-2017, Laslo Hunhold <dev@frign.de> CC BY 4.0 -->
<svg xmlns="http://www.w3.org/2000/svg" width="96" height="40">
<path d="m 0,16 24,0 0,-16 8,0 0,32 8,0 0,-16 8,0 0,16 8,0 0,-16 40,0 0,24 -8,0 0,-16 -8,0 0,16 -8,0 0,-16 -8,0 0,16 -64,0 z m 24,8 -16,0 0,8 16,0 z" fill="#222"/>
</svg>

<?xml version="1.0" encoding="UTF-8" standalone="no"?>
<!-- Copyright (c) 2014-2017, Laslo Hunhold <dev@frign.de> CC BY 4.0 -->

<svg
   width="96"
   height="40"
   version="1.1"
   id="svg3511"
   sodipodi:docname="dwm.svg"
   inkscape:version="1.1.1 (3bf5ae0d25, 2021-09-20, custom)"
   xmlns:inkscape="http://www.inkscape.org/namespaces/inkscape"
   xmlns:sodipodi="http://sodipodi.sourceforge.net/DTD/sodipodi-0.dtd"
   xmlns="http://www.w3.org/2000/svg"
   xmlns:svg="http://www.w3.org/2000/svg">
  <defs
     id="defs3515" />
  <sodipodi:namedview
     id="namedview3513"
     pagecolor="#ffffff"
     bordercolor="#666666"
     borderopacity="1.0"
     inkscape:pageshadow="2"
     inkscape:pageopacity="0.0"
     inkscape:pagecheckerboard="0"
     showgrid="false"
     inkscape:zoom="2.154466"
     inkscape:cx="72.871886"
     inkscape:cy="26.224596"
     inkscape:window-width="1340"
     inkscape:window-height="699"
     inkscape:window-x="10"
     inkscape:window-y="53"
     inkscape:window-maximized="1"
     inkscape:current-layer="svg3511" />
  <path
     d="M 0,16 H 24 V 0 h 8 v 32 h 8 V 16 h 8 v 16 h 8 V 16 H 96 V 40 H 88 V 24 H 80 V 40 H 72 V 24 H 64 V 40 H 0 Z m 24,8 H 8 v 8 h 16 z"
     fill="#222222"
     id="path3509"
     style="stroke-width:1;fill:#f1f1f1;fill-opacity:1" />
</svg>
